layouts/icon-pack-soulsy/potion_health.svg

<?xml version="1.0" encoding="UTF-8"?>
<svg width="512pt" height="512pt" version="1.1" viewBox="0 0 512 512" xmlns="http://www.w3.org/2000/svg">
 <g fill="#fff">
  <path d="m218.56 83.309h74.668c6.9102-0.50391 13.094-4.4805 16.41-10.562 3.3203-6.082 3.3203-13.434 0-19.516-3.3164-6.0859-9.5-10.062-16.41-10.562h-74.668c-6.9102 0.5-13.09 4.4766-16.41 10.562-3.3164 6.082-3.3164 13.434 0 19.516 3.3203 6.082 9.5 10.059 16.41 10.562z"/>
  <path d="m384 257.07c-14.711-28.176-38.344-50.68-67.199-64v-35.52c3.8984-2.0898 7.4883-4.7109 10.664-7.7852 9.5625-9.5625 14.934-22.531 14.934-36.055 0-2.8281-1.1211-5.543-3.1211-7.543s-4.7148-3.125-7.543-3.125h-151.57c-5.8906 0-10.668 4.7773-10.668 10.668 0.046874 18.066 9.668 34.75 25.281 43.84v35.414c-31.551 14.699-56.758 40.262-71.016 72.016-14.258 31.754-16.613 67.574-6.6367 100.92 9.9766 33.348 31.617 61.992 60.969 80.699 29.352 18.707 64.453 26.23 98.895 21.191 34.441-5.0391 65.918-22.301 88.68-48.633 22.762-26.332 35.293-59.977 35.297-94.781-0.042969-23.488-5.8672-46.605-16.961-67.309zm-64-132.91c-1.5742 3.9844-3.9297 7.6094-6.9336 10.668-5.6875 5.6016-13.348 8.7422-21.332 8.7461h-70.934c-6.2109 0.10547-12.309-1.6992-17.461-5.1719-5.1484-3.4727-9.1094-8.4453-11.34-14.242zm-110.19 85.332c1.0391-0.51172 2.0078-1.1602 2.8789-1.918h0.53516c0.37891-0.48047 0.73828-0.98047 1.0664-1.4961 0-0.53516 0.85156-1.0664 1.1719-1.707v0.003906c-0.0625-0.17188-0.0625-0.36328 0-0.53516 0.41016-1.1289 0.62891-2.3203 0.64062-3.5195v-36.055h4.9062 70.402c1.6328 0.11328 3.2734 0.11328 4.9062 0v35.414c-0.003906 1.168 0.21484 2.3281 0.64063 3.4141 0.43359 1.1211 1.0469 2.1641 1.8125 3.0938l0.85156 1.0664c0.92969 0.82031 1.9727 1.5039 3.0938 2.0273 27.199 11.02 49.586 31.363 63.148 57.387 1.9219 3.7344 3.625 7.6797 5.2266 11.625-2.2383 15.895-1.8125 30.934-13.547 43.414-24.105 25.492-75.199 15.359-101.55 10.668-58.668-11.734-70.613-38.508-101.55-30.508-8.1562 2.293-15.699 6.375-22.078 11.945 1.8633-22.844 10.055-44.715 23.66-63.16 13.602-18.449 32.078-32.738 53.352-41.266z"/>
 </g>
</svg>

<?xml version="1.0" encoding="UTF-8" standalone="no"?>
<!DOCTYPE svg PUBLIC "-//W3C//DTD SVG 1.1//EN" "http://www.w3.org/Graphics/SVG/1.1/DTD/svg11.dtd">
<svg width="100%" height="100%" viewBox="0 0 348 512" version="1.1" xmlns="http://www.w3.org/2000/svg" xmlns:xlink="http://www.w3.org/1999/xlink" xml:space="preserve" xmlns:serif="http://www.serif.com/" style="fill-rule:evenodd;clip-rule:evenodd;stroke-linejoin:round;stroke-miterlimit:2;">
    <g transform="matrix(1,0,0,1,-85.7022,0.0537866)">
        <g transform="matrix(1.20005,0,0,1.20005,-45.5555,-53.2588)">
            <g transform="matrix(1,0,0,1,-1.66659,1.66659)">
                <path d="M218.56,83.309L293.228,83.309C300.138,82.805 306.322,78.828 309.638,72.747C312.958,66.665 312.958,59.313 309.638,53.231C306.322,47.145 300.138,43.169 293.228,42.669L218.56,42.669C211.65,43.169 205.47,47.146 202.15,53.231C198.834,59.313 198.834,66.665 202.15,72.747C205.47,78.829 211.65,82.806 218.56,83.309Z" style="fill:white;fill-rule:nonzero;"/>
            </g>
        </g>
        <g transform="matrix(1.20005,0,0,1.20005,-45.5555,-53.2588)">
            <g transform="matrix(1,0,0,1,-1.66659,1.66659)">
                <path d="M384,257.07C369.289,228.894 345.656,206.39 316.801,193.07L316.801,157.55C320.699,155.46 324.289,152.839 327.465,149.765C337.027,140.202 342.399,127.234 342.399,113.71C342.399,110.882 341.278,108.167 339.278,106.167C337.278,104.167 334.563,103.042 331.735,103.042L180.165,103.042C174.274,103.042 169.497,107.819 169.497,113.71C169.544,131.776 179.165,148.46 194.778,157.55L194.778,192.964C163.227,207.663 138.02,233.226 123.762,264.98C109.504,296.734 107.149,332.554 117.125,365.9C127.102,399.248 148.742,427.892 178.094,446.599C207.446,465.306 242.547,472.829 276.989,467.79C311.43,462.751 342.907,445.489 365.669,419.157C388.431,392.825 400.962,359.18 400.966,324.376C400.923,300.888 395.099,277.771 384.005,257.067L384,257.07ZM320,124.16C318.426,128.144 316.07,131.769 313.066,134.828C307.379,140.43 299.718,143.57 291.734,143.574L220.8,143.574C214.589,143.68 208.491,141.875 203.339,138.402C198.191,134.93 194.23,129.957 191.999,124.16L320,124.16ZM209.81,209.492C210.849,208.98 211.818,208.332 212.689,207.574L213.224,207.574C213.603,207.094 213.962,206.594 214.29,206.078C214.29,205.543 215.142,205.011 215.462,204.371L215.462,204.375C215.4,204.203 215.4,204.012 215.462,203.84C215.873,202.711 216.091,201.519 216.103,200.32L216.103,164.265L291.411,164.265C293.044,164.378 294.685,164.378 296.317,164.265L296.317,199.679C296.313,200.847 296.532,202.007 296.958,203.093C297.392,204.214 298.005,205.257 298.771,206.187L299.622,207.253C300.552,208.074 301.595,208.757 302.716,209.281C329.915,220.301 352.302,240.644 365.864,266.668C367.786,270.402 369.489,274.347 371.09,278.293C368.852,294.188 369.278,309.227 357.543,321.707C333.438,347.199 282.344,337.066 255.993,332.375C197.325,320.641 185.38,293.867 154.443,301.867C146.287,304.16 138.744,308.242 132.365,313.812C134.229,290.968 142.42,269.097 156.025,250.652C169.627,232.203 188.103,217.914 209.377,209.386L209.81,209.492Z" style="fill:white;fill-rule:nonzero;"/>
            </g>
        </g>
    </g>
</svg>
